img/svg/aid.svg

<svg width="65" height="58" viewBox="0 0 65 58" fill="none" xmlns="http://www.w3.org/2000/svg">
<path d="M40.8359 40.8891C49.2547 40.8891 56.0795 34.0643 56.0795 25.6455C56.0795 17.2267 49.2547 10.4019 40.8359 10.4019C32.4171 10.4019 25.5923 17.2267 25.5923 25.6455C25.5923 34.0643 32.4171 40.8891 40.8359 40.8891Z" stroke="white" stroke-miterlimit="10"/>
<path d="M21.3391 42.9358C30.304 41.8485 37.2436 34.2054 37.2436 24.9526C37.2436 14.943 29.1314 6.83081 19.1218 6.83081C9.11217 6.83081 1 14.943 1 24.9526C1 34.28 8.04618 41.9658 17.1177 42.9678V48.1379H12.8858V52.7216H17.1071V56.8363H21.2964V52.7536H25.1446V48.1272H21.2964L21.3391 42.9358Z" stroke="white" stroke-miterlimit="10"/>
<path d="M57.6469 4.6137L51.4748 10.967C44.1728 5.66903 33.886 6.52182 27.5754 13.2908C20.753 20.6142 21.1581 32.0842 28.4815 38.9065C35.8048 45.7289 47.2748 45.3238 54.0972 38.0005C60.4611 31.1781 60.5357 20.7421 54.5875 13.8345L60.7169 7.44923L64.0002 10.402V1L54.3423 1.60761L57.6469 4.6137Z" stroke="white" stroke-miterlimit="10"/>
<path d="M19.3451 39.8228C27.2988 39.8228 33.7466 33.375 33.7466 25.4213C33.7466 17.4675 27.2988 11.0198 19.3451 11.0198C11.3914 11.0198 4.9436 17.4675 4.9436 25.4213C4.9436 33.375 11.3914 39.8228 19.3451 39.8228Z" stroke="white" stroke-miterlimit="10"/>
</svg>

<svg width="65" height="58" fill="none" xmlns="http://www.w3.org/2000/svg"><path d="M40.836 40.89c8.419 0 15.244-6.826 15.244-15.245 0-8.418-6.825-15.243-15.244-15.243s-15.244 6.825-15.244 15.243c0 8.42 6.825 15.244 15.244 15.244z" stroke="#fff" stroke-miterlimit="10"/><path d="M21.34 42.936c8.964-1.087 15.904-8.73 15.904-17.983 0-10.01-8.113-18.122-18.122-18.122C9.112 6.83 1 14.943 1 24.953c0 9.327 7.046 17.013 16.118 18.015v5.17h-4.232v4.584h4.221v4.114h4.19v-4.082h3.848v-4.627h-3.849l.043-5.191z" stroke="#fff" stroke-miterlimit="10"/><path d="M57.647 4.614l-6.172 6.353c-7.302-5.298-17.589-4.445-23.9 2.324-6.822 7.323-6.417 18.793.907 25.616 7.323 6.822 18.793 6.417 25.615-.906 6.364-6.823 6.439-17.259.49-24.166l6.13-6.386L64 10.402V1l-9.658.608 3.305 3.006z" stroke="#fff" stroke-miterlimit="10"/><path d="M19.345 39.823c7.954 0 14.402-6.448 14.402-14.402 0-7.953-6.448-14.401-14.402-14.401-7.954 0-14.401 6.448-14.401 14.401 0 7.954 6.447 14.402 14.401 14.402z" stroke="#fff" stroke-miterlimit="10"/></svg>
